svg/mfa.svg

<?xml version="1.0" encoding="UTF-8"?>
<svg xmlns="http://www.w3.org/2000/svg" xmlns:xlink="http://www.w3.org/1999/xlink" width="32" height="32" viewBox="0 0 32 32">
<path fill-rule="nonzero" fill="rgb(0%, 0%, 0%)" fill-opacity="1" d="M 1.921875 7.039062 C 0.863281 7.042969 0.00390625 7.898438 0 8.960938 L 0 22.398438 C 0 23.457031 0.863281 24.320312 1.921875 24.320312 L 22.398438 24.320312 C 23.457031 24.316406 24.316406 23.457031 24.320312 22.398438 L 24.320312 21.121094 L 32 21.121094 L 32 10.238281 L 24.320312 10.238281 L 24.320312 8.960938 C 24.316406 7.898438 23.457031 7.039062 22.398438 7.039062 Z M 13.761719 11.519531 C 16.058594 11.519531 17.921875 13.382812 17.921875 15.683594 C 17.921875 17.980469 16.058594 19.84375 13.757812 19.839844 C 11.460938 19.839844 9.601562 17.976562 9.601562 15.679688 C 9.601562 13.382812 11.464844 11.519531 13.761719 11.519531 M 24.320312 11.519531 L 30.71875 11.519531 L 30.71875 19.839844 L 24.320312 19.839844 L 24.320312 19.199219 L 29.441406 19.199219 L 29.441406 17.921875 L 24.320312 17.921875 L 24.320312 17.28125 L 28.160156 17.28125 L 28.160156 16 L 24.320312 16 L 24.320312 15.359375 L 28.160156 15.359375 L 28.160156 14.078125 L 24.320312 14.078125 L 24.320312 13.441406 L 29.441406 13.441406 L 29.441406 12.160156 L 24.320312 12.160156 Z M 4.160156 14.71875 C 4.691406 14.71875 5.121094 15.148438 5.121094 15.679688 C 5.121094 16.207031 4.691406 16.636719 4.164062 16.640625 C 3.632812 16.640625 3.203125 16.210938 3.203125 15.679688 C 3.199219 15.148438 3.628906 14.71875 4.160156 14.71875 M 13.761719 14.71875 C 13.230469 14.71875 12.800781 15.148438 12.800781 15.679688 C 12.800781 16.210938 13.230469 16.640625 13.761719 16.640625 C 14.292969 16.640625 14.71875 16.210938 14.71875 15.679688 C 14.71875 15.152344 14.292969 14.71875 13.761719 14.71875 "/>
</svg>

<svg role="img" viewBox="0 0 32 32" xmlns="http://www.w3.org/2000/svg"><path d="M1.922 7.04A1.93 1.93 0 0 0 0 8.96v13.438c0 1.059.863 1.922 1.922 1.922h20.476a1.93 1.93 0 0 0 1.922-1.922v-1.277H32V10.238h-7.68V8.961a1.926 1.926 0 0 0-1.922-1.922Zm11.84 4.48a4.16 4.16 0 0 1 4.16 4.164 4.156 4.156 0 0 1-4.164 4.156 4.161 4.161 0 0 1 .004-8.32m10.558 0h6.399v8.32H24.32v-.64h5.121v-1.278h-5.12v-.64h3.84V16h-3.84v-.64h3.84v-1.282h-3.84v-.637h5.12v-1.28h-5.12ZM4.16 14.719a.96.96 0 0 1 .004 1.922.96.96 0 0 1-.96-.961.954.954 0 0 1 .956-.961m9.602 0a.96.96 0 1 0 0 1.922c.531 0 .957-.43.957-.961a.96.96 0 0 0-.957-.961" fill="rgb(0%, 0%, 0%)"/></svg>
